X: 80
T: John Morrison, Assynt House
T: Reel, A Dorian
C: Pipe Major Peter MacLeod
L: 1/16
M: C|
K: A Dorian
A2A2A2B2 A2A2A2B2| e4e2e2 d2B2B2d2| G2G2G2B2 G2G2G2B2| d4e2d2 B2G2G2B2| 
A2A2A2G2 A2A2A2B2| e4e2e2 d2B2B2d2| e2g2f2d2 e4a2e2| g4B2d2 e2A2A2B2|| 
A1A1A2 a2g2 a4e2g2| a4g2a2 g2e2e2f2| g4a2f2 g4B2d2| g4a2g2 f2d2d2f2| 
e2g2f2d2 e4g2e2| e2a2g2a2 g2e2e2g2| d2B2B2d2 e4a2e2| g4B2d2 e2A2A2B2|| 
A1A1A2 e2d2 e4A2B2| e4e2e2 d2B2B2d2| G1G1G2 G2B2 d4G2B2| d2e2d2A2 B2A2G2B2| 
A1A1A2 e2d2 e4A2B2| e4e2e2 d2B2B2d2| e2g2f2d2 e4a2e2| g4B2d2 e2A2A2B2|| 
A2a2a2b2 a2g2e2d2| e2a2a2g2 a4g2e2| d2g2g2a2 g2e2d2B2| d2g2g2a2 g4e2d2| 
e2a2a2g2 a2g2e2d2| e2a2a2g2 a4g2e2| d2B2B2d2 e4a2e2| g4B2d2 e2A2A2B2|| 
e2A2e2d2 e2A2A2B2| e2A2e2d2 B2G2G2B2| d4d2B2 d2G2G2B2| e2B2d2A2 B2G2G2B2| 
e2A2e2d2 e2A2A2B2| e4e2e2 d2B2B2d2| e2g2f2d2 e4a2e2| g4B2d2 e2A2A2g2|| 
a4e2g2 a2e2e2g2| a4e2a2 g2e2a2f2| g4d2g2 g2d2d2e2| g4d2g2 e2d2g2e2| 
a4e2g2 a2e2e2g2| a4e2g2 a2f2g2e2| d2B2B2d2 e4a2e2| g4B2d2 e2A2A4||
D: Buddy MacMaster, Glencoe Hall, BM-91
